X:159
T: ES WAREN ZWEI KOENIGSKINDER
N: E0084E
O: Europa, Mitteleuropa, Deutschland, Lahn - Gegend, Kreis Limburg
R: erzaehlendes Volks - Lied, Sage, Liebe, Leid, Tod
M: 6/8
L: 1/16
K: G
D2 | B2G2G2G2A2B2 | B2A2z6
A2 | A4A2d2d2c2 | B6z4
GB | d2d2d2d2d2g2 | e8d2
c2 | B2B2B2d4c2 | B6z4
GB | d2d2d2d2d2g2 | e8d2
c2 | B2B2B2d4c2 | B6z4

